X:21
T:Skirmish at Little Harbor
C:Roy Watrous, 1976
S:The Watrous Book, 1992
M:2/4
L:1/16
Q:1/4=90
K:D
%%MIDI program 72
%%MIDI transpose 8
%%MIDI ratio 3 1
FG|A2F2 A2f2|edcB A2FG|A2F2 Aagf|e4-e2fg|a2b2 a2gf|edcB A2fg|
a2A2 gfe2|d6::FG|A2d2 Tf2gf|edcd e2fg|a2A2 bagf|edcB AGFG|
A2d2 Tf2gf|edcd e2fg|a2A2 gfe2|d6::cd|e2A2 A2ag|fgef d2fe|
dAeA fAgA|a4-a2fg|a2b2 a2gf|edcB A2fg|a2A2 gfe2|d6:|]

